symbols/web/sports_esports/materialsymbolssharp/sports_esports_wght700gradN25_48px.svg

<svg xmlns="http://www.w3.org/2000/svg" height="48" width="48"><path d="M1.85 39.05 6 8.9h36.1l4.15 30.15H38.1l-6.45-6.45h-15.2L10 39.05ZM7.7 34.7l6.7-6.7h19.25l6.7 6.7h.7L38.1 13.5H10.05l-3 21.2Zm27.05-9q.75 0 1.35-.6.6-.6.6-1.35 0-.75-.6-1.375t-1.35-.625q-.8 0-1.4.625-.6.625-.6 1.375t.6 1.35q.6.6 1.4.6Zm-3.85-6q.8 0 1.4-.6.6-.6.6-1.35 0-.8-.6-1.4-.6-.6-1.4-.6-.75 0-1.35.6-.6.6-.6 1.4 0 .75.6 1.35.6.6 1.35.6Zm-15.75 5.7h2.45v-3.45H21v-2.4h-3.4v-3.4h-2.45v3.4H11.7v2.4h3.45ZM24 24.1Z"/></svg>

<svg xmlns="http://www.w3.org/2000/svg" height="48" width="48"><path d="M1.85 39.05 6 8.9H42.1L46.25 39.05H38.1L31.65 32.6H16.45L10 39.05ZM7.7 34.7 14.4 28H33.65L40.35 34.7H41.05L38.1 13.5H10.05L7.05 34.7ZM34.75 25.7Q35.5 25.7 36.1 25.1Q36.7 24.5 36.7 23.75Q36.7 23 36.1 22.375Q35.5 21.75 34.75 21.75Q33.95 21.75 33.35 22.375Q32.75 23 32.75 23.75Q32.75 24.5 33.35 25.1Q33.95 25.7 34.75 25.7ZM30.9 19.7Q31.7 19.7 32.3 19.1Q32.9 18.5 32.9 17.75Q32.9 16.95 32.3 16.35Q31.7 15.75 30.9 15.75Q30.15 15.75 29.55 16.35Q28.95 16.95 28.95 17.75Q28.95 18.5 29.55 19.1Q30.15 19.7 30.9 19.7ZM15.15 25.4H17.6V21.95H21V19.55H17.6V16.15H15.15V19.55H11.7V21.95H15.15ZM24 24.1Z"/></svg>
